X:0250
M:C
L:1/8
Q:1/4=120
K:D
d>ef>d e>cdB|A>FdF E/E/E E2|d>efd e>Bd>B|AFdA  F/F/F F2 |
d>efd e>cd>B|A>FdF E/E/E E2|A>FDA F>DA>F|d>efA F/F/F F2:|

